launcher/android/assets/skins/day/svg/mapFound0.svg

<svg enable-background="new 0 0 63.99 63.49" height="63.4917" viewBox="0 0 63.99 63.49" width="63.9932" xmlns="http://www.w3.org/2000/svg" xmlns:xlink="http://www.w3.org/1999/xlink"><linearGradient id="a"><stop offset="0" stop-color="#ffffd6"/><stop offset=".376744" stop-color="#fffd31"/><stop offset=".740593" stop-color="#ffc817"/><stop offset="1" stop-color="#f6a700"/></linearGradient><radialGradient id="b" cx="38.3037" cy="22.7395" gradientTransform="matrix(-.547191198077 -.837007641989 .837007641989 -.547191198077 40.230063149252 67.242875417748)" gradientUnits="userSpaceOnUse" r="41.9755" xlink:href="#a"/><linearGradient id="c"><stop offset="0" stop-color="#fffffb"/><stop offset=".755398" stop-color="#fbfbfb"/><stop offset="1" stop-color="#b3b3b3"/></linearGradient><radialGradient id="d" cx="43.6345" cy="12.3158" gradientTransform="matrix(-.9993467365 -.036140008951 .036140008951 -.9993467365 86.795368207237 26.200497146176)" gradientUnits="userSpaceOnUse" r="9.54599" xlink:href="#c"/><radialGradient id="e" cx="21.7741" cy="13.8499" gradientTransform="matrix(-.996771112256 .080295390725 -.080295390725 -.996771112256 44.590051187862 25.906625377464)" gradientUnits="userSpaceOnUse" r="9.12997" xlink:href="#c"/><linearGradient id="f"><stop offset="0" stop-color="#b88000"/><stop offset="1" stop-color="#4f2f00"/></linearGradient><radialGradient id="g" cx="22.0286" cy="16.3193" gradientUnits="userSpaceOnUse" r="5.36658" xlink:href="#f"/><radialGradient id="h" cx="43.6242" cy="16.0017" gradientUnits="userSpaceOnUse" r="5.04895" xlink:href="#f"/><linearGradient id="i"><stop offset="0" stop-color="#fff" stop-opacity=".388235"/><stop offset="1" stop-opacity=".388235"/></linearGradient><linearGradient id="j" gradientTransform="matrix(-.089655020669 .995972879786 -.995972879786 -.089655020669 .696150185158 -.60689727961)" gradientUnits="objectBoundingBox" x1=".625435" x2="1.6832" xlink:href="#i" y1=".0147007" y2=".0147007"/><linearGradient id="k" gradientTransform="matrix(-.087099235256 .996199640242 -.996199640242 -.087099235256 .714946814542 -.558479357807)" gradientUnits="objectBoundingBox" x1=".613364" x2="1.57975" xlink:href="#i" y1=".0483434" y2=".0483434"/><radialGradient id="l" cx="25.1588" cy="15.4124" gradientUnits="userSpaceOnUse" r="4.14624" xlink:href="#f"/><radialGradient id="m" cx="19.4335" cy="11.9401" gradientUnits="userSpaceOnUse" r=".689453" xlink:href="#f"/><radialGradient id="n" cx="21.8014" cy="11.1094" gradientUnits="userSpaceOnUse" r="1.76118" xlink:href="#c"/><radialGradient id="o" cx="18.0646" cy="17.1577" gradientUnits="userSpaceOnUse" r="4.5282" xlink:href="#f"/><radialGradient id="p" cx="41.2632" cy="19.4473" gradientTransform="matrix(-.54785507156 -.836573260728 .836573260728 -.54785507156 47.600330292595 64.62120645181)" gradientUnits="userSpaceOnUse" r="41.973" xlink:href="#a"/><radialGradient id="q" cx="32.2816" cy="42.3876" gradientTransform="matrix(.212538765185 .977152635617 -.977152635617 .212538765185 66.839644359335 1.834511259089)" gradientUnits="userSpaceOnUse" r="26.2707"><stop offset="0" stop-color="#9e1f01"/><stop offset=".943965" stop-color="#180906"/></radialGradient><radialGradient id="r" cx="28.7555" cy="45.2256" gradientUnits="userSpaceOnUse" r="9.25903"><stop offset="0" stop-color="#f1ebea"/><stop offset=".0818966" stop-color="#f77f7f"/><stop offset=".280172" stop-color="#fd1414"/><stop offset=".521552" stop-color="#f00"/><stop offset=".722198" stop-color="#ba0c01"/><stop offset=".943965" stop-color="#751803"/></radialGradient><radialGradient id="s" cx="32.7215" cy="36.46" gradientUnits="userSpaceOnUse" r="20.5492"><stop offset="0" stop-color="#f8f6f2"/><stop offset=".646512" stop-color="#f0eeea"/><stop offset="1" stop-color="#999a9d"/></radialGradient><g stroke-linejoin="round"><path d="m2 31.7456c0 16.4282 13.4297 29.7461 29.9967 29.7461l0 0c16.5667 0 29.9965-13.3179 29.9965-29.7461l0 0c0-16.4281-13.4298-29.7456-29.9965-29.7456l0 0c-16.567 0-29.9967 13.3175-29.9967 29.7456z" fill="url(#b)" stroke="#000" stroke-width="4"/><g stroke-width=".2"><path d="m36.6383 14.8458c0 1.3241.1768 2.5912.496 3.7545l0 0c4.7892.1919 9.0819 1.2652 12.252 2.906l0 0c1.0686-1.7963 1.7175-4.1213 1.7175-6.6605l0 0c0-5.69187-3.3481-10.12082-8.1175-10.12082l0 0c-3.0122 0-6.348 4.42895-6.348 10.12082z" fill="url(#d)"/><path d="m14.541 15.6719c0 2.5392.6492 4.8641 1.7175 6.6604l0 0c3.1704-1.6409 7.463-2.714 12.2519-2.906l0 0c .3193-1.1632.4961-2.4305.4961-3.7544l0 0c0-5.69192-2.6626-9.51223-5.0977-10.12087l0 0c-.4765-.11902-.9474-.17579-1.4087-.17579l0 0c-4.3981-.00048-7.9591 5.14486-7.9591 10.29666z" fill="url(#e)"/><path d="m45.9264 19.1555c0-2.4193-1.1125-4.3805-2.4851-4.3805-1.3614 0-2.4674 1.9307-2.4846 4.3239 1.747.255 3.3919.6313 4.8973 1.1105.0473-.3376.0724-.6906.0724-1.0539z"/><path d="m20.0402 11.2507c-.4469.3521-.8557.8192-1.2134 1.3788-.9378 1.4673-1.5244 3.5708-1.5244 5.9088 0 1.1173.1341 2.1812.3765 3.1476.6509-.2757 1.3382-.5301 2.0574-.7611-.1357-.541-.211-1.1396-.211-1.7693 0-2.4193 1.1128-4.3805 2.4851-4.3805 1.3722 0 2.4848 1.9612 2.4848 4.3805 0 .229-.01.4539-.0292.6734.7328-.1121 1.484-.2026 2.2509-.2703.0249-.3341.0378-.6747.0378-1.0204 0-2.8684-.8801-5.3881-2.2119-6.8088-.3166-.1868-.6438-.3419-.9802-.4633-.5693-.2052-1.1652-.3133-1.781-.3133-.5992 0-1.1847.1024-1.7414.2979z" fill="url(#g)"/><path d="m41.1098 11.7291c-1.3317 1.421-2.2118 3.9406-2.2118 6.8092 0 .1078.0013.2151.0038.3218.6985.061 1.3842.141 2.0549.2388.0172-2.3932 1.1232-4.3239 2.4846-4.3239 1.3726 0 2.4851 1.9612 2.4851 4.3805 0 .3633-.0251.7163-.0724 1.0539.7942.2528 1.5496.5341 2.2607.8414.153-.7903.2357-1.6349.2357-2.5125 0-3.2297-1.1195-6.0119-2.7379-7.2876-.5565-.1955-1.1423-.2979-1.7413-.2979-.98 0-1.9092.2738-2.7614.7763z" fill="url(#h)"/><path d="m24.466 19.8289c.0192-.2195.0292-.4444.0292-.6734 0-2.4193-1.1126-4.3805-2.4848-4.3805-1.3723 0-2.4851 1.9612-2.4851 4.3805 0 .6297.0753 1.2283.211 1.7693 1.4563-.4674 3.0442-.8384 4.7297-1.0959z"/><path d="m25.4605 15.9022c0 2.1144-1.0113 3.828-2.2591 3.828s-2.2592-1.7136-2.2592-3.828c0-2.1141 1.0114-3.828 2.2592-3.828s2.2591 1.7139 2.2591 3.828z" fill="url(#j)"/><path d="m42.326 16.0277c0 2.1144 1.0113 3.828 2.2591 3.828 1.2476 0 2.2592-1.7136 2.2592-3.828 0-2.1141-1.0116-3.828-2.2592-3.828-1.2478 0-2.2591 1.7139-2.2591 3.828z" fill="url(#k)"/><path d="m26.755 18.5383c0-2.8686-.8805-5.3882-2.2122-6.8092-.3165-.1866-.6438-.3418-.9802-.463.3364.1214.6636.2765.9802.4633 1.3318 1.4207 2.2119 3.9404 2.2119 6.8088 0 .3457-.0129.6863-.0376 1.0204.025-.3341.0379-.6746.0379-1.0203z" fill="url(#l)"/><path d="m20.04 11.2507c-.4467.3522-.8555.8192-1.2132 1.3788.3577-.5596.7665-1.0267 1.2132-1.3788z" fill="url(#m)"/><path d="m20.0402 11.2507c.5567-.1955 1.1422-.2979 1.7414-.2979.6158 0 1.2117.1081 1.781.3133-.5693-.2052-1.1652-.3135-1.781-.3135-.5992 0-1.1849.1025-1.7414.2981z" fill="url(#n)"/><path d="m17.6789 21.6859c-.2424-.9664-.3765-2.0303-.3765-3.1476 0-2.338.5866-4.4415 1.5244-5.9088-.9379 1.4673-1.5244 3.5708-1.5244 5.9087 0 1.1174.1341 2.1813.3765 3.1477z" fill="url(#o)"/><path d="m32.0035 2.17993c-16.567 0-29.99672 13.31767-29.99672 29.74577s13.42972 29.7459 29.99672 29.7459c16.5667 0 29.9964-13.3178 29.9964-29.7459s-13.4297-29.74577-29.9964-29.74577zm-21.2586 21.04057c0-6.5726 9.1676-11.9009 20.4759-11.9009s20.4759 5.3283 20.4759 11.9009-9.1674 11.9007-20.4759 11.9007-20.4759-5.3281-20.4759-11.9007z" fill="url(#p)"/></g><path d="m27.46 5.51624s-11.7732 2.83728-16.3591 12.63676c1.6274-11.53825 16.3591-12.63676 16.3591-12.63676z" fill="#643d00" stroke="#653d00" stroke-linecap="round" stroke-width="3"/><path d="m39.122 6.7334s10.595 2.65967 14.8259 12.6367c-3.136-11.27196-14.8259-12.6367-14.8259-12.6367z" fill="#643d00" stroke="#653d00" stroke-linecap="round" stroke-width="3"/><path d="m14.2029 27.6663c-.4064 1.5876-.2271 5.8398.1434 8.7653.3705 2.9256.9322 4.5245 1.7137 5.9985s1.7828 2.8233 3.5349 3.9649c1.7522 1.1417 4.2553 2.0758 7.259 2.5429 3.0037.467 6.5079.467 9.5742-.1557 3.0663-.6228 5.6945-1.8683 7.8847-3.477s3.9424-3.5806 5.0688-5.5008c1.1263-1.9201 1.6269-3.7883 1.7915-5.8186.1647-2.0304-.0067-4.223-.2879-5.5333s-.6724-1.7384-1.3992-1.68c-.7267.0583-1.7891.6034-2.5315 1.051-.7425.4475-1.1649.7978-3.3355 1.2551-2.1706.4574-6.0895 1.0217-8.695 1.3007-2.6054.2789-3.8974.2723-5.4195.295s-3.2743.0746-5.4644-.3276c-2.1902-.4022-4.8185-1.2584-6.6286-2.2249-1.8102-.9665-2.8022-2.0434-3.2086-.4555z" fill="url(#q)" stroke="#000" stroke-width="2"/><path d="m31.416 39.7915c3.2654 0 5.9124 1.9463 5.9124 4.3473s-2.6471 4.3473-5.9124 4.3473-5.9123-1.9463-5.9123-4.3473 2.6469-4.3473 5.9123-4.3473z" fill="url(#r)" stroke-width=".2"/><path d="m15.0649 28.1586c.2151 1.2457 1.0554 4.075 3.5066 6.6838 2.451 2.6086 6.5129 4.9967 10.0014 6.1039s6.4036.9332 9.5312-.458c3.1277-1.3911 6.4679-3.9994 8.7063-6.7107 2.2383-2.7114 3.3747-5.5259 2.9781-6.3204-.3967-.7946-2.3263.4304-5.1439 1.388-2.8176.9578-6.5233 1.6481-10.2889 2.015s-7.5913.4103-10.7156-.1888c-3.1242-.5993-5.5472-1.8412-6.9637-2.631-1.4165-.7899-1.8266-1.1276-1.6115.1182z" fill="url(#s)" stroke-width=".2"/><path d="m18.5334 24.8412s-5.0419.9454-7.0059 4.2108c.697-3.8447 7.0059-4.2108 7.0059-4.2108z" fill="#d98004" stroke="#d98004" stroke-linecap="round"/><path d="m53.6935 29.8901s-2.6651-4.3833-6.4137-5.0676c3.8432-.7056 6.4137 5.0676 6.4137 5.0676z" fill="#d98004" stroke="#d98004" stroke-linecap="round"/></g></svg>

﻿<?xml version="1.0" encoding="utf-8"?>
<!DOCTYPE svg PUBLIC "-//W3C//DTD SVG 1.1//EN" "http://www.w3.org/Graphics/SVG/1.1/DTD/svg11.dtd">
<svg xmlns="http://www.w3.org/2000/svg" xmlns:xlink="http://www.w3.org/1999/xlink" version="1.1" baseProfile="full" width="63.9932" height="63.4917" viewBox="0 0 63.99 63.49" enable-background="new 0 0 63.99 63.49" xml:space="preserve">
	<g>
		<radialGradient id="SVGID_Fill1_" cx="38.3037" cy="22.7395" r="41.9755" gradientUnits="userSpaceOnUse" gradientTransform="rotate(236.825470 38.303734 22.739502)">
			<stop offset="0" stop-color="#FFFFD6" stop-opacity="1"/>
			<stop offset="0.376744" stop-color="#FFFD31" stop-opacity="1"/>
			<stop offset="0.740593" stop-color="#FFC817" stop-opacity="1"/>
			<stop offset="1" stop-color="#F6A700" stop-opacity="1"/>
		</radialGradient>
		<path fill="url(#SVGID_Fill1_)" stroke-width="4" stroke-linejoin="round" stroke="#000000" stroke-opacity="1" d="M 2,31.7456C 2,48.1738 15.4297,61.4917 31.9967,61.4917L 31.9967,61.4917C 48.5634,61.4917 61.9932,48.1738 61.9932,31.7456L 61.9932,31.7456C 61.9932,15.3175 48.5634,2 31.9967,2L 31.9967,2C 15.4297,2 2,15.3175 2,31.7456 Z "/>
		<g>
			<radialGradient id="SVGID_Fill2_" cx="43.6345" cy="12.3158" r="9.54599" gradientUnits="userSpaceOnUse" gradientTransform="rotate(182.071121 43.634483 12.315796)">
				<stop offset="0" stop-color="#FFFFFB" stop-opacity="1"/>
				<stop offset="0.755398" stop-color="#FBFBFB" stop-opacity="1"/>
				<stop offset="1" stop-color="#B3B3B3" stop-opacity="1"/>
			</radialGradient>
			<path fill="url(#SVGID_Fill2_)" stroke-width="0.2" stroke-linejoin="round" d="M 36.6383,14.8458C 36.6383,16.1699 36.8151,17.437 37.1343,18.6003L 37.1343,18.6003C 41.9235,18.7922 46.2162,19.8655 49.3863,21.5063L 49.3863,21.5063C 50.4549,19.71 51.1038,17.385 51.1038,14.8458L 51.1038,14.8458C 51.1038,9.15393 47.7557,4.72498 42.9863,4.72498L 42.9863,4.72498C 39.9741,4.72498 36.6383,9.15393 36.6383,14.8458 Z "/>
			<radialGradient id="SVGID_Fill3_" cx="21.7741" cy="13.8499" r="9.12997" gradientUnits="userSpaceOnUse" gradientTransform="rotate(175.394455 21.774139 13.849854)">
				<stop offset="0" stop-color="#FFFFFB" stop-opacity="1"/>
				<stop offset="0.755398" stop-color="#FBFBFB" stop-opacity="1"/>
				<stop offset="1" stop-color="#B3B3B3" stop-opacity="1"/>
			</radialGradient>
			<path fill="url(#SVGID_Fill3_)" stroke-width="0.2" stroke-linejoin="round" d="M 14.541,15.6719C 14.541,18.2111 15.1902,20.536 16.2585,22.3323L 16.2585,22.3323C 19.4289,20.6914 23.7215,19.6183 28.5104,19.4263L 28.5104,19.4263C 28.8297,18.2631 29.0065,16.9958 29.0065,15.6719L 29.0065,15.6719C 29.0065,9.97998 26.3439,6.15967 23.9088,5.55103L 23.9088,5.55103C 23.4323,5.43201 22.9614,5.37524 22.5001,5.37524L 22.5001,5.37524C 18.102,5.37476 14.541,10.5201 14.541,15.6719 Z "/>
			<path fill="#000000" fill-opacity="1" stroke-width="0.2" stroke-linejoin="round" d="M 45.9264,19.1555C 45.9264,16.7362 44.8139,14.775 43.4413,14.775C 42.0799,14.775 40.9739,16.7057 40.9567,19.0989C 42.7037,19.3539 44.3486,19.7302 45.854,20.2094C 45.9013,19.8718 45.9264,19.5188 45.9264,19.1555 Z "/>
			<radialGradient id="SVGID_Fill4_" cx="22.0286" cy="16.3193" r="5.36658" gradientUnits="userSpaceOnUse">
				<stop offset="0" stop-color="#B88000" stop-opacity="1"/>
				<stop offset="1" stop-color="#4F2F00" stop-opacity="1"/>
			</radialGradient>
			<path fill="url(#SVGID_Fill4_)" stroke-width="0.2" stroke-linejoin="round" d="M 20.0402,11.2507C 19.5933,11.6028 19.1845,12.0699 18.8268,12.6295C 17.889,14.0968 17.3024,16.2003 17.3024,18.5383C 17.3024,19.6556 17.4365,20.7195 17.6789,21.6859C 18.3298,21.4102 19.0171,21.1558 19.7363,20.9248C 19.6006,20.3838 19.5253,19.7852 19.5253,19.1555C 19.5253,16.7362 20.6381,14.775 22.0104,14.775C 23.3826,14.775 24.4952,16.7362 24.4952,19.1555C 24.4952,19.3845 24.4852,19.6094 24.466,19.8289C 25.1988,19.7168 25.95,19.6263 26.7169,19.5586C 26.7418,19.2245 26.7547,18.8839 26.7547,18.5382C 26.7547,15.6698 25.8746,13.1501 24.5428,11.7294C 24.2262,11.5426 23.899,11.3875 23.5626,11.2661C 22.9933,11.0609 22.3974,10.9528 21.7816,10.9528C 21.1824,10.9528 20.5969,11.0552 20.0402,11.2507 Z "/>
			<radialGradient id="SVGID_Fill5_" cx="43.6242" cy="16.0017" r="5.04895" gradientUnits="userSpaceOnUse">
				<stop offset="0" stop-color="#B88000" stop-opacity="1"/>
				<stop offset="1" stop-color="#4F2F00" stop-opacity="1"/>
			</radialGradient>
			<path fill="url(#SVGID_Fill5_)" stroke-width="0.2" stroke-linejoin="round" d="M 41.1098,11.7291C 39.7781,13.1501 38.898,15.6697 38.898,18.5383C 38.898,18.6461 38.8993,18.7534 38.9018,18.8601C 39.6003,18.9211 40.286,19.0011 40.9567,19.0989C 40.9739,16.7057 42.0799,14.775 43.4413,14.775C 44.8139,14.775 45.9264,16.7362 45.9264,19.1555C 45.9264,19.5188 45.9013,19.8718 45.854,20.2094C 46.6482,20.4622 47.4036,20.7435 48.1147,21.0508C 48.2677,20.2605 48.3504,19.4159 48.3504,18.5383C 48.3504,15.3086 47.2309,12.5264 45.6125,11.2507C 45.056,11.0552 44.4702,10.9528 43.8712,10.9528C 42.8912,10.9528 41.962,11.2266 41.1098,11.7291 Z "/>
			<path fill="#000000" fill-opacity="1" stroke-width="0.2" stroke-linejoin="round" d="M 24.466,19.8289C 24.4852,19.6094 24.4952,19.3845 24.4952,19.1555C 24.4952,16.7362 23.3826,14.775 22.0104,14.775C 20.6381,14.775 19.5253,16.7362 19.5253,19.1555C 19.5253,19.7852 19.6006,20.3838 19.7363,20.9248C 21.1926,20.4574 22.7805,20.0864 24.466,19.8289 Z "/>
			<linearGradient id="SVGID_Fill6_" gradientUnits="objectBoundingBox" x1="0.625435" y1="0.0147007" x2="1.6832" y2="0.0147007" gradientTransform="rotate(95.143761 0.625435 0.014701)">
				<stop offset="0" stop-color="#FFFFFF" stop-opacity="0.388235"/>
				<stop offset="1" stop-color="#000000" stop-opacity="0.388235"/>
			</linearGradient>
			<path fill="url(#SVGID_Fill6_)" stroke-width="0.2" stroke-linejoin="round" d="M 25.4605,15.9022C 25.4605,18.0166 24.4492,19.7302 23.2014,19.7302C 21.9536,19.7302 20.9422,18.0166 20.9422,15.9022C 20.9422,13.7881 21.9536,12.0742 23.2014,12.0742C 24.4492,12.0742 25.4605,13.7881 25.4605,15.9022 Z "/>
			<linearGradient id="SVGID_Fill7_" gradientUnits="objectBoundingBox" x1="0.613364" y1="0.0483434" x2="1.57975" y2="0.0483434" gradientTransform="rotate(94.996750 0.613364 0.048343)">
				<stop offset="0" stop-color="#FFFFFF" stop-opacity="0.388235"/>
				<stop offset="1" stop-color="#000000" stop-opacity="0.388235"/>
			</linearGradient>
			<path fill="url(#SVGID_Fill7_)" stroke-width="0.2" stroke-linejoin="round" d="M 42.326,16.0277C 42.326,18.1421 43.3373,19.8557 44.5851,19.8557C 45.8327,19.8557 46.8443,18.1421 46.8443,16.0277C 46.8443,13.9136 45.8327,12.1997 44.5851,12.1997C 43.3373,12.1997 42.326,13.9136 42.326,16.0277 Z "/>
			<radialGradient id="SVGID_Fill8_" cx="25.1588" cy="15.4124" r="4.14624" gradientUnits="userSpaceOnUse">
				<stop offset="0" stop-color="#B88000" stop-opacity="1"/>
				<stop offset="1" stop-color="#4F2F00" stop-opacity="1"/>
			</radialGradient>
			<path fill="url(#SVGID_Fill8_)" stroke-width="0.2" stroke-linejoin="round" d="M 26.755,18.5383C 26.755,15.6697 25.8745,13.1501 24.5428,11.7291C 24.2263,11.5425 23.899,11.3873 23.5626,11.2661C 23.899,11.3875 24.2262,11.5426 24.5428,11.7294C 25.8746,13.1501 26.7547,15.6698 26.7547,18.5382C 26.7547,18.8839 26.7418,19.2245 26.7171,19.5586C 26.7421,19.2245 26.755,18.884 26.755,18.5383 Z "/>
			<radialGradient id="SVGID_Fill9_" cx="19.4335" cy="11.9401" r="0.689453" gradientUnits="userSpaceOnUse">
				<stop offset="0" stop-color="#B88000" stop-opacity="1"/>
				<stop offset="1" stop-color="#4F2F00" stop-opacity="1"/>
			</radialGradient>
			<path fill="url(#SVGID_Fill9_)" stroke-width="0.2" stroke-linejoin="round" d="M 20.04,11.2507C 19.5933,11.6029 19.1845,12.0699 18.8268,12.6295C 19.1845,12.0699 19.5933,11.6028 20.04,11.2507 Z "/>
			<radialGradient id="SVGID_Fill10_" cx="21.8014" cy="11.1094" r="1.76118" gradientUnits="userSpaceOnUse">
				<stop offset="0" stop-color="#FFFFFB" stop-opacity="1"/>
				<stop offset="0.755398" stop-color="#FBFBFB" stop-opacity="1"/>
				<stop offset="1" stop-color="#B3B3B3" stop-opacity="1"/>
			</radialGradient>
			<path fill="url(#SVGID_Fill10_)" stroke-width="0.2" stroke-linejoin="round" d="M 20.0402,11.2507C 20.5969,11.0552 21.1824,10.9528 21.7816,10.9528C 22.3974,10.9528 22.9933,11.0609 23.5626,11.2661C 22.9933,11.0609 22.3974,10.9526 21.7816,10.9526C 21.1824,10.9526 20.5967,11.0551 20.0402,11.2507 Z "/>
			<radialGradient id="SVGID_Fill11_" cx="18.0646" cy="17.1577" r="4.5282" gradientUnits="userSpaceOnUse">
				<stop offset="0" stop-color="#B88000" stop-opacity="1"/>
				<stop offset="1" stop-color="#4F2F00" stop-opacity="1"/>
			</radialGradient>
			<path fill="url(#SVGID_Fill11_)" stroke-width="0.2" stroke-linejoin="round" d="M 17.6789,21.6859C 17.4365,20.7195 17.3024,19.6556 17.3024,18.5383C 17.3024,16.2003 17.889,14.0968 18.8268,12.6295C 17.8889,14.0968 17.3024,16.2003 17.3024,18.5382C 17.3024,19.6556 17.4365,20.7195 17.6789,21.6859 Z "/>
		</g>
		<radialGradient id="SVGID_Fill12_" cx="41.2632" cy="19.4473" r="41.973" gradientUnits="userSpaceOnUse" gradientTransform="rotate(236.780014 41.263161 19.447266)">
			<stop offset="0" stop-color="#FFFFD6" stop-opacity="1"/>
			<stop offset="0.376744" stop-color="#FFFD31" stop-opacity="1"/>
			<stop offset="0.740593" stop-color="#FFC817" stop-opacity="1"/>
			<stop offset="1" stop-color="#F6A700" stop-opacity="1"/>
		</radialGradient>
		<path fill="url(#SVGID_Fill12_)" stroke-width="0.2" stroke-linejoin="round" d="M 32.0035,2.17993C 15.4365,2.17993 2.00678,15.4976 2.00678,31.9257C 2.00678,48.3538 15.4365,61.6716 32.0035,61.6716C 48.5702,61.6716 61.9999,48.3538 61.9999,31.9257C 61.9999,15.4976 48.5702,2.17993 32.0035,2.17993 Z M 10.7449,23.2205C 10.7449,16.6479 19.9125,11.3196 31.2208,11.3196C 42.5291,11.3196 51.6967,16.6479 51.6967,23.2205C 51.6967,29.7931 42.5293,35.1212 31.2208,35.1212C 19.9123,35.1212 10.7449,29.7931 10.7449,23.2205 Z "/>
		<path fill="#643D00" fill-opacity="1" stroke-width="3" stroke-linecap="round" stroke-linejoin="round" stroke="#653D00" stroke-opacity="1" d="M 27.46,5.51624C 27.46,5.51624 15.6868,8.35352 11.1009,18.153C 12.7283,6.61475 27.46,5.51624 27.46,5.51624 Z "/>
		<path fill="#643D00" fill-opacity="1" stroke-width="3" stroke-linecap="round" stroke-linejoin="round" stroke="#653D00" stroke-opacity="1" d="M 39.122,6.7334C 39.122,6.7334 49.717,9.39307 53.9479,19.3701C 50.8119,8.09814 39.122,6.7334 39.122,6.7334 Z "/>
		<radialGradient id="SVGID_Fill13_" cx="32.2816" cy="42.3876" r="26.2707" gradientUnits="userSpaceOnUse" gradientTransform="rotate(77.728828 32.281609 42.387573)">
			<stop offset="0" stop-color="#9E1F01" stop-opacity="1"/>
			<stop offset="0.943965" stop-color="#180906" stop-opacity="1"/>
		</radialGradient>
		<path fill="url(#SVGID_Fill13_)" stroke-width="2" stroke-linejoin="round" stroke="#000000" stroke-opacity="1" d="M 14.2029,27.6663C 13.7965,29.2539 13.9758,33.5061 14.3463,36.4316C 14.7168,39.3572 15.2785,40.9561 16.06,42.4301C 16.8415,43.9041 17.8428,45.2534 19.5949,46.395C 21.3471,47.5367 23.8502,48.4708 26.8539,48.9379C 29.8576,49.4049 33.3618,49.4049 36.4281,48.7822C 39.4944,48.1594 42.1226,46.9139 44.3128,45.3052C 46.503,43.6965 48.2552,41.7246 49.3816,39.8044C 50.5079,37.8843 51.0085,36.0161 51.1731,33.9858C 51.3378,31.9554 51.1664,29.7628 50.8852,28.4525C 50.604,27.1422 50.2128,26.7141 49.486,26.7725C 48.7593,26.8308 47.6969,27.3759 46.9545,27.8235C 46.212,28.271 45.7896,28.6213 43.619,29.0786C 41.4484,29.536 37.5295,30.1003 34.924,30.3793C 32.3186,30.6582 31.0266,30.6516 29.5045,30.6743C 27.9824,30.697 26.2302,30.7489 24.0401,30.3467C 21.8499,29.9445 19.2216,29.0883 17.4115,28.1218C 15.6013,27.1553 14.6093,26.0784 14.2029,27.6663 Z "/>
		<radialGradient id="SVGID_Fill14_" cx="28.7555" cy="45.2256" r="9.25903" gradientUnits="userSpaceOnUse">
			<stop offset="0" stop-color="#F1EBEA" stop-opacity="1"/>
			<stop offset="0.0818966" stop-color="#F77F7F" stop-opacity="1"/>
			<stop offset="0.280172" stop-color="#FD1414" stop-opacity="1"/>
			<stop offset="0.521552" stop-color="#FF0000" stop-opacity="1"/>
			<stop offset="0.722198" stop-color="#BA0C01" stop-opacity="1"/>
			<stop offset="0.943965" stop-color="#751803" stop-opacity="1"/>
		</radialGradient>
		<path fill="url(#SVGID_Fill14_)" stroke-width="0.2" stroke-linejoin="round" d="M 31.416,39.7915C 34.6814,39.7915 37.3284,41.7378 37.3284,44.1388C 37.3284,46.5398 34.6813,48.4861 31.416,48.4861C 28.1507,48.4861 25.5037,46.5398 25.5037,44.1388C 25.5037,41.7378 28.1506,39.7915 31.416,39.7915 Z "/>
		<radialGradient id="SVGID_Fill15_" cx="32.7215" cy="36.46" r="20.5492" gradientUnits="userSpaceOnUse">
			<stop offset="0" stop-color="#F8F6F2" stop-opacity="1"/>
			<stop offset="0.646512" stop-color="#F0EEEA" stop-opacity="1"/>
			<stop offset="1" stop-color="#999A9D" stop-opacity="1"/>
		</radialGradient>
		<path fill="url(#SVGID_Fill15_)" stroke-width="0.2" stroke-linejoin="round" d="M 15.0649,28.1586C 15.28,29.4043 16.1203,32.2336 18.5715,34.8424C 21.0225,37.451 25.0844,39.8391 28.5729,40.9463C 32.0614,42.0535 34.9765,41.8795 38.1041,40.4883C 41.2318,39.0972 44.572,36.4889 46.8104,33.7776C 49.0487,31.0662 50.1851,28.2517 49.7885,27.4572C 49.3918,26.6626 47.4622,27.8876 44.6446,28.8452C 41.827,29.803 38.1213,30.4933 34.3557,30.8602C 30.5901,31.2271 26.7644,31.2705 23.6401,30.6714C 20.5159,30.0721 18.0929,28.8302 16.6764,28.0404C 15.2599,27.2505 14.8498,26.9128 15.0649,28.1586 Z "/>
		<path fill="#D98004" fill-opacity="1" stroke-linecap="round" stroke-linejoin="round" stroke="#D98004" stroke-opacity="1" d="M 18.5334,24.8412C 18.5334,24.8412 13.4915,25.7866 11.5275,29.052C 12.2245,25.2073 18.5334,24.8412 18.5334,24.8412 Z "/>
		<path fill="#D98004" fill-opacity="1" stroke-linecap="round" stroke-linejoin="round" stroke="#D98004" stroke-opacity="1" d="M 53.6935,29.8901C 53.6935,29.8901 51.0284,25.5068 47.2798,24.8225C 51.123,24.1169 53.6935,29.8901 53.6935,29.8901 Z "/>
	</g>
</svg>
